X:1
T:Title
%%score ( 1 2 ) ( 3 4 )
L:1/8
Q:1/4=80
M:4/4
K:F
V:1 treble nm="Strings 1, Treble"
V:2 treble 
V:3 bass nm="Strings 1, Bass"
V:4 bass 
V:1
 z4 z2 [CF]2 | [FA]>[FA] [FA]>[FA] [FA]>[CG] [CF]>[FA] | (3[Fc][Fc][Fc] (3[Fc][Fc][FA] [Fc]4 | %3
 (3[FA][FA][FA] (3[FA][FA][FA] [FA]2 [CF]2 | (3[EG][EG][EG] (3[EG][EG][FA] [CG]2 [CF]2 | %5
 [FA]>[FA] [FA]>[FA] [FA]>[CG] [CF]>[FA] | [Fc]>[Fc] [Fc]>[FA] [Fc]4 | [FA] [FA]2 F [EG]3 [EA] | %8
 F6 [Ac][GB] | [FA]2 [FA][FA] [FA]2 [EG]F | [FB]2 [FB]2 [FB]3 [FB] | [FA]2 [FA]2 [Ac]2 [FA]F | %12
 [EG]2 [FA]2 [EG]2[Q:1/4=80] [Ec][GB][Q:1/4=12] | [FA]2 [FA][FA] [FA]2 GF | %14
 [FB]2 [FB]2 [FB]3 [FB] | [FA]2 [FA][FA] [Fc]<[FA] F<[FA] | %16
 [EG]2 [EA]2 [CF]2[Q:1/4=80] z2[Q:1/4=12] |] %17
V:2
 x8 | x8 | x8 | x8 | x8 | x8 | x8 | x8 | x8 | x8 | x8 | x8 | x8 | z4 z2 C2 | x8 | x8 | x8 |] %17
V:3
 z4 z2 [F,A,]2 | [F,C]>[F,C] [F,C]>[F,C] C>B, [F,A,]>[F,C] | %2
w: 1.~I~|hear~ my~ Sav ior~ say * ing,~ "Come~|
 (3[F,A,][F,A,][F,A,] (3[F,A,][F,A,][F,C] [F,A,]4 | (3[F,C][F,C][F,C] (3[F,C][F,C][F,C] C2 A,2 | %4
w: clos er,~ my~ child,~ * to~ Me,~|Clos er,~ My~ child,~ * to~ Me,~ *|
 (3[C,C][C,C][C,C] (3[C,C][C,C][C,C] [C,B,]2 [F,A,]2 | [F,C]>[F,C] [F,C]>[F,C] C>B, [F,A,]>[F,C] | %6
w: Clos er,~ My~ child,~ * to~ Me";~ I~|hear~ Him~ sweet ly~ say * ing,~ "I~|
 [F,A,]>[F,A,] [F,A,]>[F,C] [F,A,]4 | [F,C] [F,C]2 [F,A,] [C,B,]3 [C,C] | [F,A,]6 [F,C]2 | %9
w: will~ draw~ near~ to~ thee,~|I~ will~ draw~ near~ to~|thee."~ *|
 [F,C]2 [F,C][F,C] [F,C]2 [F,B,][F,A,] | [B,,D]2 [B,,D]2 [B,,D]3 [B,,D] | %11
w: ||
 [F,C]2 [F,C]2 [F,F]2 [F,C][F,A,] | [C,C]2 [C,C]2 [C,C]2 [C,C]2 | [F,C]2 [F,C][F,C] [F,C]2 B,A, | %14
w: |||
 [B,,D]2 [B,,D]2 [B,,D]3 [B,,D] | [F,C]2 [F,C][F,C] [F,A,]<[F,C] [F,A,]<[F,C] | %16
w: ||
 [C,B,]2 [C,C]2 [F,,F,A,]2 z2 |] %17
w: |
V:4
 x8 | z4 F,2 z2 | x8 | z4 F,4 | x8 | z4 F,2 z2 | x8 | x8 | x8 | x8 | x8 | x8 | x8 | z4 z2 F,2 | %14
 x8 | x8 | x8 |] %17

